X: 39595
T: Teeo, The
R: reel
M: 4/4
K: Adorian
~e3 g ~a3 g|fddf gBdB|Aeeg aAag|fdeB BA ~A2:|
|:EAAc BG A2|B2 BA AGGF|EAAc BG A2|EDEG ~A,3 E:|

